bank-minus.svg

<svg fill="currentColor" viewBox="0 0 24 24"><path d="M14 17h8v2h-8zM11.5 1 21 6v2H2V6zm4.5 9h3v2.08L18 12c-.7 0-1.37.12-2 .34zM2 22v-3h10.08c.19 1.14.71 2.17 1.45 3zm8-12h3v4.68c-.46.69-.78 1.47-.92 2.32H10zm-6 0h3v7H4z"/></svg>

<svg  viewBox="0 0 24 24" fill="currentColor"><path  d="M14,17H22V19H14V17M11.5,1L21,6V8H2V6L11.5,1M16,10H19V12.08L18,12C17.3,12 16.63,12.12 16,12.34V10M2,22V19H12.08C12.27,20.14 12.79,21.17 13.53,22H2M10,10H13V14.68C12.54,15.37 12.22,16.15 12.08,17H10V10M4,10H7V17H4V10Z"/></svg>
